icons/zodiac-aquarius.svg

<svg width="24" height="24" viewBox="0 0 24 24" fill="none" xmlns="http://www.w3.org/2000/svg">
<path fill-rule="evenodd" clip-rule="evenodd" d="M5.29289 6.29289C5.68342 5.90237 6.31658 5.90237 6.70711 6.29289L9 8.58579L11.2929 6.29289C11.6834 5.90237 12.3166 5.90237 12.7071 6.29289L15 8.58579L17.2929 6.29289C17.6834 5.90237 18.3166 5.90237 18.7071 6.29289L21.7071 9.29289C22.0976 9.68342 22.0976 10.3166 21.7071 10.7071C21.3166 11.0976 20.6834 11.0976 20.2929 10.7071L18 8.41421L15.7071 10.7071C15.3166 11.0976 14.6834 11.0976 14.2929 10.7071L12 8.41421L9.70711 10.7071C9.31658 11.0976 8.68342 11.0976 8.29289 10.7071L6 8.41421L3.70711 10.7071C3.31658 11.0976 2.68342 11.0976 2.29289 10.7071C1.90237 10.3166 1.90237 9.68342 2.29289 9.29289L5.29289 6.29289ZM2.29289 16.2929L5.29289 13.2929C5.68342 12.9024 6.31658 12.9024 6.70711 13.2929L9 15.5858L11.2929 13.2929C11.6834 12.9024 12.3166 12.9024 12.7071 13.2929L15 15.5858L17.2929 13.2929C17.6834 12.9024 18.3166 12.9024 18.7071 13.2929L21.7071 16.2929C22.0976 16.6834 22.0976 17.3166 21.7071 17.7071C21.3166 18.0976 20.6834 18.0976 20.2929 17.7071L18 15.4142L15.7071 17.7071C15.3166 18.0976 14.6834 18.0976 14.2929 17.7071L12 15.4142L9.70711 17.7071C9.31658 18.0976 8.68342 18.0976 8.29289 17.7071L6 15.4142L3.70711 17.7071C3.31658 18.0976 2.68342 18.0976 2.29289 17.7071C1.90237 17.3166 1.90237 16.6834 2.29289 16.2929Z" fill="black"/>
</svg>

<svg
  width="24"
  height="24"
  viewBox="0 0 24 24"
  xmlns="http://www.w3.org/2000/svg"
>
  <path
    fill-rule="evenodd"
    clip-rule="evenodd"
    d="M5.293 6.293a1 1 0 0 1 1.414 0L9 8.586l2.293-2.293a1 1 0 0 1 1.414 0L15 8.586l2.293-2.293a1 1 0 0 1 1.414 0l3 3a1 1 0 0 1-1.414 1.414L18 8.414l-2.293 2.293a1 1 0 0 1-1.414 0L12 8.414l-2.293 2.293a1 1 0 0 1-1.414 0L6 8.414l-2.293 2.293a1 1 0 0 1-1.414-1.414l3-3zm-3 10l3-3a1 1 0 0 1 1.414 0L9 15.586l2.293-2.293a1 1 0 0 1 1.414 0L15 15.586l2.293-2.293a1 1 0 0 1 1.414 0l3 3a1 1 0 0 1-1.414 1.414L18 15.414l-2.293 2.293a1 1 0 0 1-1.414 0L12 15.414l-2.293 2.293a1 1 0 0 1-1.414 0L6 15.414l-2.293 2.293a1 1 0 0 1-1.414-1.414z"
  />
</svg>
